Sources/FrostedUI/Resources/Icons.xcassets/usd20.imageset/usd-20.svg

<svg
  width="20"
  height="20"
  viewBox="0 0 20 20"
  fill="none"
  xmlns="http://www.w3.org/2000/svg"
  data-fui-icon="true"
>
  <path
    d="M7.25 13.25H11.625C12.5225 13.25 13.25 12.5225 13.25 11.625V11.625C13.25 10.7275 12.5225 10 11.625 10H8.375C7.47754 10 6.75 9.27246 6.75 8.375V8.375C6.75 7.47754 7.47754 6.75 8.375 6.75H12.75"
    stroke="currentColor"
    stroke-width="1.5"
    stroke-linecap="round"
    stroke-linejoin="round"
  />
  <circle
    cx="10"
    cy="10"
    r="8.25"
    stroke="currentColor"
    stroke-width="1.5"
    stroke-linecap="round"
    stroke-linejoin="round"
  />
  <path
    d="M10 13.25L10 15.25M10 4.75L10 6.75"
    stroke="currentColor"
    stroke-width="1.5"
    stroke-linecap="round"
    stroke-linejoin="round"
  />
</svg>

<svg xmlns="http://www.w3.org/2000/svg" width="20" height="20" fill="none" data-fui-icon="true" viewBox="0 0 20 20"><path stroke="currentColor" stroke-linecap="round" stroke-linejoin="round" stroke-width="1.5" d="M7.25 13.25h4.375c.898 0 1.625-.727 1.625-1.625v0c0-.898-.727-1.625-1.625-1.625h-3.25A1.625 1.625 0 0 1 6.75 8.375v0c0-.897.728-1.625 1.625-1.625h4.375"/><circle cx="10" cy="10" r="8.25" stroke="currentColor" stroke-linecap="round" stroke-linejoin="round" stroke-width="1.5"/><path stroke="currentColor" stroke-linecap="round" stroke-linejoin="round" stroke-width="1.5" d="M10 13.25v2m0-10.5v2"/></svg>
